svgs/duotone/square-z.svg

<svg xmlns="http://www.w3.org/2000/svg" viewBox="0 0 448 512"><!--! Font Awesome Pro 6.3.0 by @fontawesome - https://fontawesome.com License - https://fontawesome.com/license (Commercial License) Copyright 2023 Fonticons, Inc. --><defs><style>.fa-secondary{opacity:.4}</style></defs><path class="fa-primary" d="M296 336H197.8l117.9-170.3c5.094-7.328 5.688-16.89 1.531-24.8C313.1 132.1 304.9 128 296 128h-144C138.8 128 128 138.8 128 152S138.8 176 152 176h98.19l-117.9 170.3c-5.094 7.328-5.688 16.89-1.531 24.8C134.9 379 143.1 384 152 384h144c13.25 0 24-10.75 24-24S309.3 336 296 336z"/><path class="fa-secondary" d="M384 32H64C28.65 32 0 60.65 0 96v320c0 35.35 28.65 64 64 64h320c35.35 0 64-28.65 64-64V96C448 60.65 419.3 32 384 32zM296 384h-144c-8.938 0-17.12-4.953-21.25-12.86c-4.156-7.906-3.562-17.47 1.531-24.8L250.2 176H152C138.8 176 128 165.3 128 152S138.8 128 152 128h144c8.938 0 17.12 4.953 21.25 12.86c4.156 7.906 3.562 17.47-1.531 24.8L197.8 336H296c13.25 0 24 10.75 24 24S309.3 384 296 384z"/></svg>

<svg xmlns="http://www.w3.org/2000/svg" viewBox="0 0 448 512"><!-- Font Awesome Pro 6.0.0-alpha2 by @fontawesome - https://fontawesome.com License - https://fontawesome.com/license (Commercial License) --><defs><style>.fa-secondary{opacity:.4}</style></defs><path d="M384 32H64C28.654 32 0 60.654 0 96V416C0 451.346 28.654 480 64 480H384C419.348 480 448 451.346 448 416V96C448 60.654 419.348 32 384 32ZM296 384H152C143.062 384 134.875 379.047 130.75 371.141C126.594 363.234 127.188 353.672 132.281 346.344L250.188 176H152C138.75 176 128 165.25 128 152S138.75 128 152 128H296C304.938 128 313.125 132.953 317.25 140.859C321.406 148.766 320.812 158.328 315.719 165.656L197.812 336H296C309.25 336 320 346.75 320 360S309.25 384 296 384Z" class="fa-secondary"/><path d="M296 336H197.812L315.719 165.656C320.812 158.328 321.406 148.766 317.25 140.859C313.125 132.953 304.938 128 296 128H152C138.75 128 128 138.75 128 152S138.75 176 152 176H250.188L132.281 346.344C127.188 353.672 126.594 363.234 130.75 371.141C134.875 379.047 143.062 384 152 384H296C309.25 384 320 373.25 320 360S309.25 336 296 336Z" class="fa-primary"/></svg>
